4. Skillbox/img/eye-circle-three.svg

<svg fill="none" height="80" viewBox="0 0 78 80" width="78" xmlns="http://www.w3.org/2000/svg" xmlns:xlink="http://www.w3.org/1999/xlink"><clipPath id="a"><path d="m0 0h77.7778v80h-77.7778z"/></clipPath><clipPath id="b"><path d="m27.0833 27.8571h23.6111v24.2857h-23.6111z"/></clipPath><g clip-path="url(#a)"><path clip-rule="evenodd" d="m24.0068 3.04482c4.7182-2.01019 9.7751-3.04482 14.8821-3.04482 5.1069 0 10.1639 1.03463 14.8821 3.04482s9.0053 4.95656 12.6165 8.67088c3.6111 3.7144 6.4757 8.1239 8.43 12.977 1.9544 4.853 2.9603 10.0544 2.9603 15.3073 0 10.6087-4.0972 20.7828-11.3903 28.2843-7.2931 7.5014-17.1846 11.7157-27.4986 11.7157-5.107 0-10.1639-1.0346-14.8821-3.0448-4.7183-2.0102-9.0053-4.9566-12.6165-8.6709-7.29309-7.5015-11.3903-17.6756-11.3903-28.2843s4.09721-20.7828 11.3903-28.2843c3.6112-3.71432 7.8982-6.66069 12.6165-8.67088zm15.2293 59.09808c11.6977 0 21.1806-9.7538 21.1806-21.7858 0-12.0319-9.4829-21.7857-21.1806-21.7857s-21.1805 9.7538-21.1805 21.7857c0 12.032 9.4828 21.7858 21.1805 21.7858z" fill="#3f2aff" fill-rule="evenodd"/><g clip-path="url(#b)" fill="#212133"><path d="m38.8881 43.1122v-9.2614c-.2552.0243-.5076.0652-.7643.0774h-7.3515c-.4072 0-.7378.34-.7378.7589v.7588h-2.2134c-.4073 0-.7378.34-.7378.7589v4.5533c0 .4189.3305.7589.7378.7589h2.2134v.7589c0 .4189.3306.7589.7378.7589h.4471l2.966 8.1321c.1815.4872.5873.8409 1.086.9441.0989.0212.1978.0318.2952.0318.3939 0 .7687-.1608 1.0373-.4492l1.7722-1.8077c.453-.4659.5607-1.1929.2715-1.756l-2.476-5.0951h1.9596c.2538.0121.5046.0531.7569.0774z"/><path d="m50.5728 28.2244c-.0147-.0258-.028-.047-.0472-.0713-.0811-.1063-.183-.1928-.3084-.2429-.0044-.0015-.0074-.0076-.0118-.0091-.0147-.0045-.028.0031-.0428-.0015-.0664-.0197-.1328-.0425-.2066-.0425-.0501 0-.0944.0197-.1431.0304-.028.006-.0546.0076-.0826.0167-.1269.0425-.2361.1153-.3232.2155-.0059.0061-.0147.0076-.0206.0136-2.3005 2.8732-5.5085 4.7947-9.0219 5.4989v9.7c3.5134.7043 6.7214 2.6242 9.0219 5.4974.0059.0075.0162.0106.0236.0197.0516.0592.1151.1062.1829.1457.0222.0137.0399.0334.062.044.093.041.1933.0668.301.0668.0841 0 .1668-.0152.2494-.044.0044-.0015.0074-.0076.0118-.0091.1254-.0501.2273-.1351.3084-.2429.0177-.0243.031-.0455.0472-.0713.0709-.1169.121-.2459.121-.3916v-19.7309c0-.1457-.0501-.2747-.121-.3916z"/></g></g></svg>

<svg width="78" height="80" viewBox="0 0 78 80" fill="none" xmlns="http://www.w3.org/2000/svg">
<g clip-path="url(#clip0)">
<path fill-rule="evenodd" clip-rule="evenodd" d="M24.0068 3.04482C28.725 1.03463 33.7819 0 38.8889 0C43.9958 0 49.0528 1.03463 53.771 3.04482C58.4892 5.05501 62.7763 8.00138 66.3875 11.7157C69.9986 15.4301 72.8632 19.8396 74.8175 24.6927C76.7719 29.5457 77.7778 34.7471 77.7778 40C77.7778 50.6087 73.6806 60.7828 66.3875 68.2843C59.0944 75.7857 49.2029 80 38.8889 80C33.7819 80 28.725 78.9654 24.0068 76.9552C19.2885 74.945 15.0015 71.9986 11.3903 68.2843C4.09721 60.7828 0 50.6087 0 40C0 29.3913 4.09721 19.2172 11.3903 11.7157C15.0015 8.00138 19.2885 5.05501 24.0068 3.04482ZM39.2361 62.1429C50.9338 62.1429 60.4167 52.3891 60.4167 40.3571C60.4167 28.3252 50.9338 18.5714 39.2361 18.5714C27.5384 18.5714 18.0556 28.3252 18.0556 40.3571C18.0556 52.3891 27.5384 62.1429 39.2361 62.1429Z" fill="#3F2AFF"/>
<g clip-path="url(#clip1)">
<path d="M38.8881 43.1122V33.8508C38.6329 33.8751 38.3805 33.916 38.1238 33.9282H30.7723C30.3651 33.9282 30.0345 34.2682 30.0345 34.6871V35.4459H27.8211C27.4138 35.4459 27.0833 35.7859 27.0833 36.2048V40.7581C27.0833 41.177 27.4138 41.517 27.8211 41.517H30.0345V42.2759C30.0345 42.6948 30.3651 43.0348 30.7723 43.0348H31.2194L34.1854 51.1669C34.3669 51.6541 34.7727 52.0078 35.2714 52.111C35.3703 52.1322 35.4692 52.1428 35.5666 52.1428C35.9605 52.1428 36.3353 51.982 36.6039 51.6936L38.3761 49.8859C38.8291 49.42 38.9368 48.693 38.6476 48.1299L36.1716 43.0348H38.1312C38.385 43.0469 38.6358 43.0879 38.8881 43.1122Z" fill="#212133"/>
<path d="M50.5728 28.2244C50.5581 28.1986 50.5448 28.1774 50.5256 28.1531C50.4445 28.0468 50.3426 27.9603 50.2172 27.9102C50.2128 27.9087 50.2098 27.9026 50.2054 27.9011C50.1907 27.8966 50.1774 27.9042 50.1626 27.8996C50.0962 27.8799 50.0298 27.8571 49.956 27.8571C49.9059 27.8571 49.8616 27.8768 49.8129 27.8875C49.7849 27.8935 49.7583 27.8951 49.7303 27.9042C49.6034 27.9467 49.4942 28.0195 49.4071 28.1197C49.4012 28.1258 49.3924 28.1273 49.3865 28.1333C47.086 31.0065 43.878 32.928 40.3646 33.6322V43.3322C43.878 44.0365 47.086 45.9564 49.3865 48.8296C49.3924 48.8371 49.4027 48.8402 49.4101 48.8493C49.4617 48.9085 49.5252 48.9555 49.593 48.995C49.6152 49.0087 49.6329 49.0284 49.655 49.039C49.748 49.08 49.8483 49.1058 49.956 49.1058C50.0401 49.1058 50.1228 49.0906 50.2054 49.0618C50.2098 49.0603 50.2128 49.0542 50.2172 49.0527C50.3426 49.0026 50.4445 48.9176 50.5256 48.8098C50.5433 48.7855 50.5566 48.7643 50.5728 48.7385C50.6437 48.6216 50.6938 48.4926 50.6938 48.3469V28.616C50.6938 28.4703 50.6437 28.3413 50.5728 28.2244Z" fill="#212133"/>
</g>
</g>
<defs>
<clipPath id="clip0">
<rect width="77.7778" height="80" fill="white"/>
</clipPath>
<clipPath id="clip1">
<rect width="23.6111" height="24.2857" fill="white" transform="translate(27.0833 27.8571)"/>
</clipPath>
</defs>
</svg>
